korla/status/symbolic/network-disconnected-symbolic.svg

<svg style="clip-rule:evenodd;fill-rule:evenodd;stroke-linejoin:round;stroke-miterlimit:2" version="1.1" viewBox="0 0 16 16" xmlns="http://www.w3.org/2000/svg">
 <path d="m11 11v1c0 0.28 0.1 0.54 0.28 0.72l0.78 0.78-0.78 0.78c-0.18 0.19-0.28 0.45-0.28 0.72v1h1c0.28 0 0.54-0.1 0.72-0.28l0.78-0.78 0.78 0.78c0.18 0.18 0.45 0.28 0.72 0.28h1v-1c0-0.27-0.1-0.53-0.28-0.72l-0.78-0.78 0.78-0.78c0.18-0.18 0.28-0.44 0.28-0.72v-1h-1c-0.27 0-0.54 0.1-0.72 0.28l-0.78 0.79-0.78-0.79c-0.18-0.18-0.44-0.28-0.72-0.28h-1z" style="fill-rule:nonzero;fill:rgb(223,223,223)"/>
 <g transform="matrix(1.09632 0 0 .830325 -.992944 2.67483)">
  <path d="m10 9 5.5-4.5-5.5-4.5v2.97h-3v3.06h3v2.97z" style="fill-opacity:.5;fill-rule:nonzero;fill:rgb(223,223,223)"/>
 </g>
 <g transform="matrix(-1.09632 0 0 .830325 16.9929 5.85225)">
  <path d="m10 9 5.5-4.5-5.5-4.5v2.97h-3v3.06h3v2.97z" style="fill-opacity:.5;fill-rule:nonzero;fill:rgb(223,223,223)"/>
 </g>
</svg>

<svg xmlns="http://www.w3.org/2000/svg" width="16" height="16" version="1.1">
 <path style="fill:#dfdfdf" d="M 11,11 V 12 C 11,12.28 11.1,12.54 11.28,12.72 L 12.06,13.5 11.28,14.28 C 11.1,14.47 11,14.73 11,15 V 16 H 12 C 12.28,16 12.54,15.9 12.72,15.72 L 13.5,14.94 14.28,15.72 C 14.46,15.9 14.73,16 15,16 H 16 V 15 C 16,14.73 15.9,14.47 15.72,14.28 L 14.94,13.5 15.72,12.72 C 15.9,12.54 16,12.28 16,12 V 11 H 15 C 14.73,11 14.46,11.1 14.28,11.28 L 13.5,12.07 12.72,11.28 C 12.54,11.1 12.28,11 12,11 Z"/>
 <path style="fill:#dfdfdf;opacity:0.3" d="M 10,9 15.5,4.5 10,0 C 10,0.01 10,1.34 10,2 9,2 8,2 7,2 7,3.67 7,5.34 7,7 8,7 9,7 10,7 10,7.67 10,9 10,9 Z"/>
 <path style="fill:#dfdfdf;opacity:0.3" d="M 6,6 0.5,10.5 6,15 V 13 H 9 V 8 H 6 Z"/>
</svg>
